T: Ffidl Ffadl
M: 2/4
L: 1/8
K: Dmaj
|: d/d/d fd | g2 ec | d/d/d fd | e2 cA |d/d/d fd | ge ge | e/f/g f/g/a | e2 cA :|g2dB | Bg dB | g2dB |Ae cA  |{g2dB | Bg dB | e/f/g f/g/a | e2 cA :|}
